editor/icons/icon_bucket.svg

<svg height="16" viewBox="0 0 16 16" width="16" xmlns="http://www.w3.org/2000/svg"><g fill="#e0e0e0" stroke-width="1.325447" transform="matrix(.53348552 .53348552 -.53348552 .53348552 561.06065 -551.99594)"><path d="m2 1c-.5522355.0001-.9999477.4477-1 1v1.5h2.8847656a1.4999877 1.5 0 0 1 1.1152344-.5 1.4999877 1.5 0 0 1 1.5 1.5 1.4999877 1.5 0 0 1 -1.5 1.5 1.4999877 1.5 0 0 1 -1.1152344-.5h-2.8847656v1.5h-1.26953125-1.73046875c-.5522769 0-.999989-.4477-1-1 .000011-.5523.4477231-1 1-1h3 2.5878906.546875a1 1 0 0 0 .8652344.5 1 1 0 0 0 1-1 1 1 0 0 0 -1-1 1 1 0 0 0 -.8632812.5h-.5488282-2.5878906-3c-1.1045647 0-1.9999933.8954285-2 2 .0000067 1.1045715.8954353 2 2 2h3v6c.0000735.5523.4477232.9999 1 1h8c.552235-.0001.999947-.4477 1-1v-13z" stroke-width="1.325447" transform="translate(0 1036.4)"/><path d="m12 1038.4c.707107 3.5356.707107 3.5356 1.414213 4.2427.707107.7071 2.121321.7071 2.828428 0 .707106-.7071.707106-2.1213 0-2.8284-.707107-.7072-.707107-.7072-4.242641-1.4143z" fill-rule="evenodd"/></g></svg>

<?xml version="1.0" encoding="UTF-8" standalone="no"?>
<svg
   xmlns:dc="http://purl.org/dc/elements/1.1/"
   xmlns:cc="http://creativecommons.org/ns#"
   xmlns:rdf="http://www.w3.org/1999/02/22-rdf-syntax-ns#"
   xmlns:svg="http://www.w3.org/2000/svg"
   xmlns="http://www.w3.org/2000/svg"
   xmlns:sodipodi="http://sodipodi.sourceforge.net/DTD/sodipodi-0.dtd"
   xmlns:inkscape="http://www.inkscape.org/namespaces/inkscape"
   width="16"
   height="16"
   version="1.1"
   viewBox="0 0 16 16"
   id="svg6"
   sodipodi:docname="icon_bucket.svg"
   inkscape:version="0.92.2 2405546, 2018-03-11">
  <metadata
     id="metadata12">
    <rdf:RDF>
      <cc:Work
         rdf:about="">
        <dc:format>image/svg+xml</dc:format>
        <dc:type
           rdf:resource="http://purl.org/dc/dcmitype/StillImage" />
        <dc:title></dc:title>
      </cc:Work>
    </rdf:RDF>
  </metadata>
  <defs
     id="defs10" />
  <sodipodi:namedview
     pagecolor="#ffffff"
     bordercolor="#666666"
     borderopacity="1"
     objecttolerance="10"
     gridtolerance="10"
     guidetolerance="10"
     inkscape:pageopacity="0"
     inkscape:pageshadow="2"
     inkscape:window-width="1876"
     inkscape:window-height="1574"
     id="namedview8"
     showgrid="true"
     inkscape:snap-bbox="true"
     inkscape:bbox-paths="false"
     inkscape:bbox-nodes="false"
     inkscape:snap-bbox-edge-midpoints="false"
     inkscape:snap-bbox-midpoints="true"
     inkscape:snap-intersection-paths="true"
     inkscape:snap-smooth-nodes="true"
     inkscape:snap-object-midpoints="true"
     inkscape:snap-nodes="false"
     inkscape:snap-others="false"
     inkscape:zoom="16"
     inkscape:cx="-4.3713942"
     inkscape:cy="-1.9091903"
     inkscape:window-x="4"
     inkscape:window-y="20"
     inkscape:window-maximized="0"
     inkscape:current-layer="g4">
    <inkscape:grid
       type="xygrid"
       id="grid4524" />
  </sodipodi:namedview>
  <g
     transform="translate(0 -1036.4)"
     id="g4">
    <g
       id="g4576"
       transform="matrix(0.53348552,0.53348552,-0.53348552,0.53348552,561.06065,484.40406)"
       style="stroke-width:1.32544696">
      <path
         id="path2"
         transform="translate(0,1036.4)"
         d="M 2,1 C 1.4477645,1.0001 1.0000523,1.4477 1,2 V 3.5 H 3.8847656 A 1.4999877,1.5 0 0 1 5,3 1.4999877,1.5 0 0 1 6.5,4.5 1.4999877,1.5 0 0 1 5,6 1.4999877,1.5 0 0 1 3.8847656,5.5 H 1 V 7 H -0.26953125 -2 c -0.5522769,0 -0.999989,-0.4477 -1,-1 1.1e-5,-0.5523 0.4477231,-1 1,-1 h 3 2.5878906 0.546875 A 1,1 0 0 0 5,5.5 1,1 0 0 0 6,4.5 1,1 0 0 0 5,3.5 1,1 0 0 0 4.1367188,4 H 3.5878906 1 -2 c -1.1045647,0 -1.9999933,0.8954285 -2,2 6.7e-6,1.1045715 0.8954353,2 2,2 h 3 v 6 c 7.35e-5,0.5523 0.4477232,0.9999 1,1 h 8 c 0.552235,-10e-5 0.999947,-0.4477 1,-1 V 1 Z"
         style="color:#000000;font-variant-ligatures:normal;font-variant-position:normal;font-variant-caps:normal;font-variant-numeric:normal;font-variant-alternates:normal;font-feature-settings:normal;text-indent:0;text-decoration:none;text-decoration-line:none;text-decoration-style:solid;text-decoration-color:#000000;text-transform:none;text-orientation:mixed;dominant-baseline:auto;white-space:normal;shape-padding:0;isolation:auto;mix-blend-mode:normal;solid-color:#000000;fill:#e0e0e0;stroke-width:1.32544696;color-rendering:auto;image-rendering:auto;shape-rendering:auto"
         inkscape:connector-curvature="0" />
      <path
         sodipodi:nodetypes="cczcc"
         inkscape:connector-curvature="0"
         id="path4526"
         d="m 12,1038.4 c 0.707107,3.5356 0.707107,3.5356 1.414213,4.2427 0.707107,0.7071 2.121321,0.7071 2.828428,0 0.707106,-0.7071 0.707106,-2.1213 0,-2.8284 C 15.535534,1039.1071 15.535534,1039.1071 12,1038.4 Z"
         style="fill:#e0e0e0;fill-opacity:1;fill-rule:evenodd;stroke:none;stroke-width:1.32544696px;stroke-linecap:butt;stroke-linejoin:miter;stroke-opacity:1" />
    </g>
  </g>
</svg>
